flaticon/symbols/precipitation.svg

<svg xmlns="http://www.w3.org/2000/svg" width="32" height="32" viewBox="0 0 24 24">
    <path d="M23.828125 12.300781C23.464844 11.730469 22.878906 11.300781 22.089844 11.03125 21.109375 10.6875 19.960938 10.722656 18.9375 11.117188 17.996094 11.484375 16.714844 12.160156 15.476562 12.816406 14.113281 13.539062 12.410156 14.441406 11.949219 14.441406 11.472656 14.441406 9.652344 13.425781 8.324219 12.683594 7.246094 12.082031 6.230469 11.511719 5.484375 11.1875 4.347656 10.691406 3.023438 10.679688 1.945312 11.148438 1.445312 11.367188 1.019531 11.75.683594 12.28125.46875 12.621094.453125 13.039062.648438 13.390625.882812 13.8125 1.359375 14.074219 1.898438 14.074219 2.359375 14.074219 2.789062 13.867188 3.070312 13.503906 3.105469 13.457031 3.160156 13.417969 3.234375 13.386719 3.503906 13.269531 3.875 13.285156 4.207031 13.429688 4.652344 13.625 5.375 14.019531 6.207031 14.480469 8.199219 15.578125 10.679688 16.945312 11.949219 16.945312 13.164062 16.945312 15.53125 15.714844 17.617188 14.625 18.605469 14.113281 19.535156 13.628906 20.105469 13.40625 20.425781 13.28125 20.761719 13.261719 21.03125 13.355469 21.140625 13.394531 21.222656 13.449219 21.273438 13.515625 21.527344 13.867188 21.941406 14.074219 22.382812 14.074219L22.605469 14.074219C23.140625 14.074219 23.632812 13.804688 23.863281 13.382812 24.054688 13.03125 24.042969 12.636719 23.828125 12.300781zM23.140625 12.984375C23.070312 13.117188 22.875 13.253906 22.605469 13.253906L22.382812 13.253906C22.203125 13.253906 22.039062 13.171875 21.9375 13.03125 21.789062 12.824219 21.574219 12.671875 21.300781 12.578125 20.851562 12.421875 20.308594 12.445312 19.808594 12.636719 19.195312 12.875 18.289062 13.347656 17.238281 13.894531 15.433594 14.835938 12.964844 16.121094 11.949219 16.121094 10.890625 16.121094 8.414062 14.753906 6.605469 13.757812 5.753906 13.289062 5.015625 12.882812 4.535156 12.675781 4.246094 12.550781 3.9375 12.484375 3.640625 12.484375 3.378906 12.484375 3.128906 12.535156 2.902344 12.632812 2.703125 12.71875 2.539062 12.84375 2.417969 13 2.296875 13.160156 2.105469 13.25 1.898438 13.25 1.613281 13.25 1.4375 13.113281 1.371094 12.992188 1.320312 12.902344 1.324219 12.8125 1.382812 12.71875 1.625 12.332031 1.929688 12.058594 2.277344 11.90625 3.148438 11.523438 4.222656 11.539062 5.15625 11.945312 5.863281 12.25 6.910156 12.835938 7.921875 13.402344 9.996094 14.5625 11.304688 15.265625 11.949219 15.265625 12.585938 15.265625 13.851562 14.613281 15.863281 13.546875 17.082031 12.902344 18.339844 12.234375 19.238281 11.886719 20.078125 11.558594 21.019531 11.53125 21.820312 11.808594 22.429688 12.019531 22.871094 12.335938 23.132812 12.746094 23.167969 12.796875 23.203125 12.875 23.140625 12.984375zM22.664062 9.527344C23.34375 9.527344 23.898438 8.972656 23.898438 8.292969 23.898438 7.609375 23.34375 7.054688 22.664062 7.054688L1.234375 7.054688C.554688 7.054688 0 7.609375 0 8.292969 0 8.972656.554688 9.527344 1.234375 9.527344zM.824219 8.292969C.824219 8.0625 1.007812 7.878906 1.234375 7.878906L22.664062 7.878906C22.890625 7.878906 23.074219 8.0625 23.074219 8.292969 23.074219 8.519531 22.890625 8.703125 22.664062 8.703125L1.234375 8.703125C1.007812 8.703125.824219 8.519531.824219 8.292969zM.824219 8.292969"/>
</svg>

<svg xmlns="http://www.w3.org/2000/svg" width="32" height="32" viewBox="0 0 24 24">
    <path d="M23.828 12.3c-.363-.57-.95-1-1.738-1.269-.98-.344-2.13-.308-3.152.086-.942.367-2.223 1.043-3.461 1.7-1.364.722-3.067 1.624-3.528 1.624-.476 0-2.297-1.015-3.625-1.757-1.078-.602-2.094-1.172-2.84-1.496-1.136-.497-2.46-.508-3.539-.04-.5.22-.925.602-1.261 1.133-.215.34-.23.758-.036 1.11.235.421.711.683 1.25.683.461 0 .891-.207 1.172-.57a.387.387 0 0 1 .164-.117c.27-.117.641-.102.973.043.445.195 1.168.59 2 1.05 1.992 1.098 4.473 2.465 5.742 2.465 1.215 0 3.582-1.23 5.668-2.32.988-.512 1.918-.996 2.488-1.219.32-.125.657-.144.926-.05.11.039.192.093.242.16.254.351.668.558 1.11.558h.222c.536 0 1.028-.27 1.258-.691.192-.352.18-.746-.035-1.082zm-.687.684c-.07.133-.266.27-.536.27h-.222a.544.544 0 0 1-.445-.223 1.265 1.265 0 0 0-.637-.453c-.45-.156-.992-.133-1.492.059-.614.238-1.52.71-2.57 1.258-1.805.94-4.274 2.226-5.29 2.226-1.058 0-3.535-1.367-5.344-2.363-.851-.469-1.59-.875-2.07-1.082a2.275 2.275 0 0 0-.894-.192c-.262 0-.512.051-.739.149-.199.086-.363.21-.484.367a.644.644 0 0 1-.52.25c-.285 0-.46-.137-.527-.258-.05-.09-.047-.18.012-.273.242-.387.547-.66.894-.813.871-.383 1.946-.367 2.88.04.706.304 1.753.89 2.765 1.456 2.074 1.16 3.383 1.864 4.027 1.864.637 0 1.903-.653 3.914-1.72 1.219-.644 2.477-1.312 3.375-1.66.84-.327 1.782-.355 2.582-.077.61.21 1.051.527 1.313.937.035.05.07.129.008.238zm0 0M22.664 9.527a1.237 1.237 0 0 0 0-2.472H1.234a1.237 1.237 0 0 0 0 2.473zM.824 8.293c0-.23.184-.414.41-.414h21.43c.227 0 .41.184.41.414a.41.41 0 0 1-.41.41H1.234a.41.41 0 0 1-.41-.41zm0 0"/>
</svg>
